svgs/sharp-light/circle-envelope.svg

<svg xmlns="http://www.w3.org/2000/svg" viewBox="0 0 512 512"><!--! Font Awesome Pro 6.6.0 by @fontawesome - https://fontawesome.com License - https://fontawesome.com/license (Commercial License) Copyright 2024 Fonticons, Inc. --><path d="M480 256A224 224 0 1 0 32 256a224 224 0 1 0 448 0zM0 256a256 256 0 1 1 512 0A256 256 0 1 1 0 256zm160-96l192 0 32 0 0 32 0 128 0 32-32 0-192 0-32 0 0-32 0-128 0-32 32 0zm192 48.2l0-16.2-192 0 0 16.2 96 47.4 96-47.4zm0 35.7l-88.9 43.9-7.1 3.5-7.1-3.5L160 243.9l0 76.1 192 0 0-76.1z"/></svg>

<svg xmlns="http://www.w3.org/2000/svg" viewBox="0 0 512 512"><!--! Font Awesome Pro 6.4.2 by @fontawesome - https://fontawesome.com License - https://fontawesome.com/license (Commercial License) Copyright 2023 Fonticons, Inc. --><path d="M480 256A224 224 0 1 0 32 256a224 224 0 1 0 448 0zM0 256a256 256 0 1 1 512 0A256 256 0 1 1 0 256zm160-96H352h32v32V320v32H352 160 128V320 192 160h32zm192 48.2V192H160v16.2l96 47.4 96-47.4zm0 35.7l-88.9 43.9-7.1 3.5-7.1-3.5L160 243.9V320H352V243.9z"/></svg>
